images/two-branches.svg

<?xml version="1.0" encoding="UTF-8"?>
<svg id="svg31048" version="1.1" viewBox="0 0 384 163" xmlns="http://www.w3.org/2000/svg" xmlns:cc="http://creativecommons.org/ns#" xmlns:dc="http://purl.org/dc/elements/1.1/" xmlns:rdf="http://www.w3.org/1999/02/22-rdf-syntax-ns#">
 <metadata id="metadata31054">
  <rdf:RDF>
   <cc:Work rdf:about="">
    <dc:format>image/svg+xml</dc:format>
    <dc:type rdf:resource="http://purl.org/dc/dcmitype/StillImage"/>
    <dc:title>images/two-branches</dc:title>
   </cc:Work>
  </rdf:RDF>
 </metadata>
 <!-- Generator: Sketch 56.3 (81716) - https://sketch.com -->
 <title id="title31002">images/two-branches</title>
 <desc id="desc31004">Created with Sketch.</desc>
 <g id="03---Branch-Progression-1" transform="translate(4,4)" style="fill-rule:evenodd;fill:none">
  <g id="g31084">
   <path id="Line-7" d="m333 52v-29h1v29h4l-4.5 9-4.5-9z" style="fill-rule:nonzero;fill:#8f8981"/>
   <path id="Line-8" d="m334 102v30h-1v-30h-4l4.5-9 4.5 9z" style="fill-rule:nonzero;fill:#8f8981"/>
   <path id="Line" d="m240 77h50v1h-50v4l-9-4.5 9-4.5z" style="fill-rule:nonzero;fill:#8f8981"/>
   <path id="Line-2" d="m95 77h50v1h-50v4l-9-4.5 9-4.5z" style="fill-rule:nonzero;fill:#8f8981"/>
   <g id="ref" transform="translate(290)">
    <rect id="Rectangle-2" transform="scale(.81132 1)" width="106" height="33" style="fill-rule:evenodd;fill:#f44d27"/>
    <text id="master" transform="translate(-9.9003 .316)" font-size="12px" font-weight="700" style="fill:#979797;font-family:'Source Code Pro';font-size:12px;font-weight:700;text-anchor:middle"><tspan id="tspan31011" x="53" y="20" style="fill:#f0f0f0">master</tspan></text>
   </g>
   <g id="g31021" transform="translate(290,122)">
    <rect id="rect31015" transform="scale(.81132 1)" width="106" height="33" style="fill-rule:evenodd;fill:#f44d27"/>
    <text id="text31019" transform="translate(-10.128 -.236)" font-size="12px" font-weight="700" style="fill:#979797;font-family:'Source Code Pro';font-size:12px;font-weight:700;text-anchor:middle"><tspan id="tspan31017" x="53" y="20" style="fill:#f0f0f0">testing</tspan></text>
   </g>
   <g id="other" transform="translate(290,61)">
    <rect id="rect31023" width="86" height="33" style="fill-rule:evenodd;fill:#efefe7"/>
    <text id="text31027" font-size="12px" font-weight="700" style="fill:#979797;font-family:'Source Code Pro';font-size:12px;font-weight:700;text-anchor:middle"><tspan id="tspan31025" x="43" y="21" style="fill:gray">f30ab</tspan></text>
   </g>
   <g id="g31036" transform="translate(145,61)">
    <rect id="rect31030" width="86" height="33" style="fill-rule:evenodd;fill:#efefe7"/>
    <text id="text31034" font-size="12px" font-weight="700" style="fill:#979797;font-family:'Source Code Pro';font-size:12px;font-weight:700;text-anchor:middle"><tspan id="tspan31032" x="43" y="21" style="fill:gray">34ac2</tspan></text>
   </g>
   <g id="g31044" transform="translate(0,61)">
    <rect id="rect31038" width="86" height="33" style="fill-rule:evenodd;fill:#efefe7"/>
    <text id="text31042" font-size="12px" font-weight="700" style="fill:#979797;font-family:'Source Code Pro';font-size:12px;font-weight:700;text-anchor:middle"><tspan id="tspan31040" x="43" y="21" style="fill:gray">98ca9</tspan></text>
   </g>
  </g>
 </g>
</svg>

<?xml version="1.0"?>
<svg xmlns="http://www.w3.org/2000/svg" xmlns:xlink="http://www.w3.org/1999/xlink" width="399px" height="156px" viewBox="0 0 399 156" version="1.1">
    <!-- Generator: Sketch 56.3 (81716) - https://sketch.com -->
    <title>images/two-branches</title>
    <desc>Created with Sketch.</desc>
    <g id="03---Branch-Progression-1" stroke="none" stroke-width="1" fill="none" fill-rule="evenodd">
        <path id="Line-7" d="M333,52 L333,23 L334,23 L334,52 L338,52 L333.5,61 L329,52 L333,52 Z" fill="#8F8981" fill-rule="nonzero"/>
        <path id="Line-8" d="M334,102 L334,132 L333,132 L333,102 L329,102 L333.5,93 L338,102 L334,102 Z" fill="#8F8981" fill-rule="nonzero"/>
        <path id="Line" d="M240,77 L290,77 L290,78 L240,78 L240,82 L231,77.5 L240,73 L240,77 Z" fill="#8F8981" fill-rule="nonzero"/>
        <path id="Line-2" d="M95,77 L145,77 L145,78 L95,78 L95,82 L86,77.5 L95,73 L95,77 Z" fill="#8F8981" fill-rule="nonzero"/>
        <g id="ref" transform="translate(290.000000, 0.000000)">
            <rect id="Rectangle-2" fill="#F44D27" fill-rule="evenodd" x="0" y="0" width="106" height="33"/>
            <text stroke="none" font-family="Source Code Pro" font-size="12px" font-weight="900" fill="#979797" fill-opacity="1" text-anchor="middle" id="master">
                <tspan fill="#f0f0f0" x="53" y="20" fill-opacity="1">master</tspan>
            </text>
        </g>
        <g id="ref" transform="translate(290.000000, 122.000000)">
            <rect id="Rectangle-2" fill="#F44D27" fill-rule="evenodd" x="0" y="0" width="106" height="33"/>
            <text stroke="none" font-family="Source Code Pro" font-size="12px" font-weight="900" fill="#979797" fill-opacity="1" text-anchor="middle" id="master">
                <tspan fill="#f0f0f0" x="53" y="20" fill-opacity="1">testing</tspan>
            </text>
        </g>
        <g id="other" transform="translate(290.000000, 61.000000)">
            <rect id="Rectangle-2" fill="#EFEFE7" fill-rule="evenodd" x="0" y="0" width="86" height="33"/>
            <text stroke="none" font-family="Source Code Pro" font-size="12px" font-weight="900" fill="#979797" fill-opacity="1" text-anchor="middle" id="master">
                <tspan fill="#808080" x="43" y="21" fill-opacity="1">f30ab</tspan>
            </text>
        </g>
        <g id="other" transform="translate(145.000000, 61.000000)">
            <rect id="Rectangle-2" fill="#EFEFE7" fill-rule="evenodd" x="0" y="0" width="86" height="33"/>
            <text stroke="none" font-family="Source Code Pro" font-size="12px" font-weight="900" fill="#979797" fill-opacity="1" text-anchor="middle" id="master">
                <tspan fill="#808080" x="43" y="21" fill-opacity="1">34ac2</tspan>
            </text>
        </g>
        <g id="other" transform="translate(0.000000, 61.000000)">
            <rect id="Rectangle-2" fill="#EFEFE7" fill-rule="evenodd" x="0" y="0" width="86" height="33"/>
            <text stroke="none" font-family="Source Code Pro" font-size="12px" font-weight="900" fill="#979797" fill-opacity="1" text-anchor="middle" id="master">
                <tspan fill="#808080" x="43" y="21" fill-opacity="1">98ca9</tspan>
            </text>
        </g>
        <path id="Line-10" d="M334,164 L334,201 L333,201 L333,164 L329,164 L333.5,155 L338,164 L334,164 Z" fill="#8F8981" fill-rule="nonzero"/>
    </g>
</svg>
